X:3
T:Drive the Cows Home
R:jig
D:Lisa MacArthur
B:O'Neill's Music of Ireland
Z:Paul Stewart Cranford (P.S.C.), <http://www.cranfordpub.com>
L:1/8
M:6/8
Q:288
K:Amix
a|efe edB|dBA A2 B|GBA Gge|dBA G2 g|
fed ef^g|a^ga e2 f|g2 e dBd|edA A2:|
|:e|aga efg|aga e2 f|gfg def|gfg d2 e|
[1aga efg|aga e2 f|g2 e dBd|edA A2:|
[2agf gfe|fed edB|g2 e dBd|edA A2|]
